packages/kaspersky-hexa-ui-icons/src/iconsSVGs/48/Cloud.svg

<svg xmlns="http://www.w3.org/2000/svg" width="48" height="48" fill="none" viewBox="0 0 48 48"><path fill="#000" fill-rule="evenodd" d="M17.6573 13.2764C19.8137 9.5273 23.8609 7 28.5 7c6.7052 0 12.1773 5.2794 12.4862 11.9082C45.1073 20.6559 48 24.739 48 29.5 48 35.8513 42.8513 41 36.5 41c-.1753 0-.3461-.0007-.5146-.0013-.3282-.0013-.6475-.0026-.9737.0012L35 41.0001 11.9871 41c-.3255-.0042-.6433-.0029-.9709-.0015-.1687.0008-.34.0015-.5162.0015C4.701 41 0 36.299 0 30.5c0-4.5912 2.946-8.492 7.0492-9.9195C7.5078 16.3184 11.1162 13 15.5 13c.7444 0 1.4676.0959 2.1573.2764M28.5 9c-4.1547 0-7.7478 2.413-9.4507 5.9185l-.3988.8211-.854-.3226C17.0838 15.1478 16.3103 15 15.5 15c-3.541 0-6.421 2.8318-6.4984 6.3539l-.0164.747-.721.196C4.6537 23.2783 2 26.5805 2 30.5c0 4.6944 3.8056 8.5 8.5 8.5.1575 0 .3195-.0007.4838-.0014.3363-.0014.6827-.0029 1.0226.0014h22.9878a67 67 0 0 1 1.0204-.0013c.1646.0007.327.0013.4854.0013 5.2467 0 9.5-4.2533 9.5-9.5 0-4.1349-2.6423-7.6553-6.3336-8.9598l-.6726-.2377.0058-.7134A9 9 0 0 0 39 19.5C39 13.701 34.299 9 28.5 9"/></svg>

<svg width="48" height="48" viewBox="0 0 48 48" fill="none" xmlns="http://www.w3.org/2000/svg">
<path fill-rule="evenodd" clip-rule="evenodd" d="M17.6573 13.2764C19.8137 9.52726 23.8609 7 28.5 7C35.2052 7 40.6773 12.2794 40.9862 18.9082C45.1073 20.6559 48 24.739 48 29.5C48 35.8513 42.8513 41 36.5 41C36.3247 41 36.1539 40.9993 35.9854 40.9987C35.6572 40.9974 35.3379 40.9961 35.0117 40.9999L35 41.0001L11.9871 41C11.6616 40.9958 11.3438 40.9971 11.0162 40.9985C10.8475 40.9993 10.6762 41 10.5 41C4.70101 41 0 36.299 0 30.5C0 25.9088 2.94594 22.008 7.04919 20.5805C7.50778 16.3184 11.1162 13 15.5 13C16.2444 13 16.9676 13.0959 17.6573 13.2764ZM28.5 9C24.3453 9 20.7522 11.413 19.0493 14.9185L18.6505 15.7396L17.7965 15.417C17.0838 15.1478 16.3103 15 15.5 15C11.959 15 9.07907 17.8318 9.00161 21.3539L8.98518 22.1009L8.26417 22.2969C4.65371 23.2783 2 26.5805 2 30.5C2 35.1944 5.80558 39 10.5 39C10.6575 39 10.8195 38.9993 10.9838 38.9986C11.3201 38.9972 11.6665 38.9957 12.0064 39H34.9942C35.3335 38.9961 35.6786 38.9974 36.0146 38.9987C36.1792 38.9994 36.3416 39 36.5 39C41.7467 39 46 34.7467 46 29.5C46 25.3651 43.3577 21.8447 39.6664 20.5402L38.9938 20.3025L38.9996 19.5891C38.9999 19.5594 39 19.5297 39 19.5C39 13.701 34.299 9 28.5 9Z" fill="black"/>
</svg>
